X: 1
T:Little House Round the Corner -- Jig
M:6/8
L:1/8
C:J. HAND.
R:jig
B:Ryan's Mammoth Collection
N:457
Z:Contributed by Ray Davies,  ray:davies99.freeserve.co.uk
K:D
uA|\
.F.D(A, D).F.B | AFD {F}.E.D(B, | A,).D.F .A.d.f | {a}.g>fg .e(ag) |
{g}fed AFD | {F}.E.D(B, D).F.A | {e}dcd eag | (fd).d d2 :|
|:u(f/g/)|\
.a(fa) .g(eg) | fed ecA | {e}dcd ede | fdf (efg) |
.a(fa) .g(eg) | {g}fed ecA | {e}d>cd AFD | {F}EDE D2 :|
